src/icons/server-environment.svg

<svg width="16" height="16" viewBox="0 0 16 16" fill="none" xmlns="http://www.w3.org/2000/svg">
<path d="M6 3H10V4H6V3ZM6 9H10V10H6V9ZM6 11H10V12H6V11ZM15.1406 16H0.859375L2.10938 11H4V2C4 1.86458 4.02604 1.73698 4.07812 1.61719C4.13021 1.4974 4.20052 1.39062 4.28906 1.29688C4.3776 1.20312 4.48438 1.13021 4.60938 1.07812C4.73438 1.02604 4.86458 1 5 1H11C11.1354 1 11.263 1.02604 11.3828 1.07812C11.5026 1.13021 11.6094 1.20052 11.7031 1.28906C11.7969 1.3776 11.8698 1.48438 11.9219 1.60938C11.974 1.73438 12 1.86458 12 2V11H13.8906L15.1406 16ZM5 13H11V2H5V13ZM13.8594 15L13.1094 12H12V14H4V12H2.89062L2.14062 15H13.8594Z" fill="#C5C5C5"/>
</svg>

<svg width="16" height="16" xmlns="http://www.w3.org/2000/svg"><path d="M6 3h4v1H6V3zm0 6h4v1H6V9zm0 2h4v1H6v-1zm9.14 5H.86l1.25-5H4V2a.95.95 0 0 1 .078-.383c.052-.12.123-.226.211-.32a.922.922 0 0 1 .32-.219A1.01 1.01 0 0 1 5 1h6a.95.95 0 0 1 .383.078c.12.052.226.123.32.211a.922.922 0 0 1 .219.32c.052.125.078.256.078.391v9h1.89l1.25 5zM5 13h6V2H5v11zm8.86 2l-.75-3H12v2H4v-2H2.89l-.75 3h11.72z"/></svg>
